build/images/d3-logo.svg

<svg version="1.1" xmlns:sketch="http://www.bohemiancoding.com/sketch/ns" xmlns="http://www.w3.org/2000/svg" x="0" y="0" viewBox="0 0 59 56" enable-background="new 0 0 59 56" xml:space="preserve"><path fill="#fff" d="M28.2 43.5c3-4.4 4.7-9.8 4.7-15.5 0-15.4-12.5-28-27.9-28h-5v12.3h4.9c8.6 0 15.7 7 15.7 15.7 0 2.4-.5 4.6-1.5 6.6-2.5 5.4-7.9 9.1-14.2 9.1h-4.9v12.3h4.9c9.7-.1 18.3-5 23.3-12.5z"/><path sketch:type="MSShapeGroup" fill="#fff" d="M31.6 46.9c1.1-1.6 1.4-2.2 2.1-3.3h8.3c2.6 0 4.7-2.1 4.7-4.8 0-2.6-2.1-4.8-4.7-4.8h-4.9c.4-2 .6-4 .6-6.1 0-2.1-.2-4.2-.6-6.2h4.9c2.6 0 4.7-2.1 4.7-4.8 0-2.6-2.1-4.8-4.7-4.8h-8.3c-2.8-4.9-6.9-9.1-11.8-12.1h20c9.4 0 17 7.6 17 17 0 4.1-1.5 7.9-3.9 10.9 2.5 3 3.9 6.8 3.9 10.9-.4 9-7.9 17-17 17h-19.8s5-1.9 9.5-8.9z"/></svg>

<svg version="1.1" xmlns="http://www.w3.org/2000/svg" x="0" y="0" viewBox="0 0 59 56" enable-background="new 0 0 59 56" xml:space="preserve"><path fill="#fff" d="M28.2 43.5c3-4.4 4.7-9.8 4.7-15.5C32.9 12.6 20.4 0 5 0H0v12.3h4.9c8.6 0 15.7 7 15.7 15.7 0 2.4-.5 4.6-1.5 6.6-2.5 5.4-7.9 9.1-14.2 9.1H0V56h4.9c9.7-.1 18.3-5 23.3-12.5z"/><path fill="#fff" d="M31.6 46.9c1.1-1.6 1.4-2.2 2.1-3.3H42c2.6 0 4.7-2.1 4.7-4.8 0-2.6-2.1-4.8-4.7-4.8h-4.9c.4-2 .6-4 .6-6.1 0-2.1-.2-4.2-.6-6.2H42c2.6 0 4.7-2.1 4.7-4.8 0-2.6-2.1-4.8-4.7-4.8h-8.3C30.9 7.2 26.8 3 21.9 0h20c9.4 0 17 7.6 17 17 0 4.1-1.5 7.9-3.9 10.9 2.5 3 3.9 6.8 3.9 10.9-.4 9-7.9 17-17 17H22.1s5-1.9 9.5-8.9z"/></svg>
